img/contact-icon3.svg

<svg width="100" height="100" viewBox="0 0 100 100" fill="none" xmlns="http://www.w3.org/2000/svg">
<g clip-path="url(#clip0_163_4400)">
<path d="M76.6033 72.8921C72.1449 71.2807 66.2952 70.0372 59.5349 69.2534C60.1884 68.5929 60.8321 67.9227 61.4657 67.2432C67.5169 60.7451 71.5464 54.3914 73.7829 47.8202C78.5896 33.7063 73.8682 16.2231 62.8019 7.15371C57.1722 2.54062 50.0063 0 42.6241 0C35.2417 0 28.0752 2.54062 22.4461 7.15371C17.2053 11.4492 13.1697 17.7612 11.0824 24.9281C9.02055 32.0102 8.97348 39.497 10.9496 46.0104C13.5922 54.7233 19.2683 62.3976 25.9456 69.2568C19.2088 70.0407 13.3776 71.28 8.92832 72.8862C2.85867 75.0755 -0.21875 77.8174 -0.21875 81.0366C-0.21875 84.9668 4.29694 88.1528 13.2028 90.5056C21.1201 92.5974 31.6172 93.75 42.7575 93.75C53.8977 93.75 64.3936 92.5976 72.312 90.5056C81.2175 88.1526 85.733 84.9666 85.733 81.0367C85.733 77.8204 82.6619 75.0802 76.6033 72.8921ZM14.6317 25.9597C16.5115 19.5006 20.1194 13.8357 24.7898 10.0077C29.7601 5.93423 36.0937 3.69126 42.6239 3.69126C49.1541 3.69126 55.4876 5.93481 60.4575 10.0082C65.2903 13.9684 68.9395 19.9309 70.7323 26.7968C72.4981 33.555 72.3389 40.6 70.2849 46.6322C65.6547 60.2295 53.4755 70.3667 42.6239 79.3028C31.1247 69.8214 18.6229 58.5794 14.4858 44.9404C12.7148 39.1033 12.7664 32.3628 14.6318 25.9598C12.7664 32.3626 16.5116 19.5007 14.6318 25.9598L14.6317 25.9597ZM71.3698 86.9223C63.7527 88.9387 53.5924 90.0527 42.7615 90.0585C31.9311 90.0637 21.7697 88.9605 14.1508 86.9515C5.72597 84.7296 3.47729 82.2016 3.47626 81.0572C3.47495 78.6041 11.7021 74.2583 29.3472 72.6206C33.0273 76.1059 36.8924 79.3731 40.6423 82.4556C42.1789 83.719 43.0736 83.7162 44.6085 82.4534C48.2576 79.4446 52.2349 76.1648 56.0667 72.5982C73.7772 74.2119 82.0364 78.5613 82.0381 81.0171C82.0381 82.1604 79.7924 84.6918 71.3698 86.9223Z" fill="#3391AC"/>
<path d="M54.0185 52.2524C56.0679 51.0579 54.2093 47.8677 52.1565 49.0636C49.275 50.7431 45.9764 51.6306 42.6194 51.6306C32.1648 51.6306 23.6604 43.1339 23.6604 32.6906C23.6604 22.2467 32.1648 13.7502 42.6194 13.7502C53.0729 13.7502 61.5779 22.2467 61.5779 32.6906C61.5779 34.8233 61.2263 36.9152 60.5332 38.9089C59.7547 41.1472 63.2446 42.3615 64.0242 40.1202C64.8535 37.7357 65.2735 35.2358 65.2735 32.6901C65.2735 20.2109 55.1107 10.0582 42.6195 10.0582C30.128 10.0582 19.9648 20.2109 19.9648 32.6901C19.9648 45.1698 30.128 55.3219 42.6194 55.3219C46.6299 55.3219 50.5722 54.261 54.0185 52.2526V52.2524Z" fill="#3391AC"/>
<path d="M58.7371 44.1599C57.7324 44.1599 56.8877 45.001 56.8877 46.0057C56.8877 47.0094 57.733 47.8523 58.7371 47.8511C59.7131 47.8511 60.5378 47.0581 60.5814 46.086C60.6273 45.0531 59.7738 44.1597 58.7371 44.1597V44.1599Z" fill="#3391AC"/>
</g>
<defs>
<clipPath id="clip0_163_4400">
<rect width="100" height="100" fill="white"/>
</clipPath>
</defs>
</svg>

<svg width="100" height="100" fill="none" xmlns="http://www.w3.org/2000/svg"><g clip-path="url(#clip0_163_4400)" fill="#3391AC"><path d="M76.603 72.892c-4.458-1.611-10.308-2.855-17.068-3.639.653-.66 1.297-1.33 1.93-2.01 6.052-6.498 10.081-12.852 12.318-19.423 4.807-14.114.085-31.597-10.981-40.666C57.172 2.54 50.006 0 42.624 0c-7.382 0-14.549 2.54-20.178 7.154-5.24 4.295-9.276 10.607-11.364 17.774-2.061 7.082-2.109 14.569-.132 21.082 2.642 8.713 8.318 16.388 14.996 23.247-6.737.784-12.568 2.023-17.018 3.63-6.07 2.189-9.147 4.93-9.147 8.15 0 3.93 4.516 7.116 13.422 9.469 7.917 2.091 18.414 3.244 29.555 3.244 11.14 0 21.636-1.152 29.554-3.244 8.906-2.353 13.421-5.54 13.421-9.47 0-3.216-3.071-5.956-9.13-8.144zM14.632 25.96c1.88-6.46 5.487-12.124 10.158-15.952C29.76 5.934 36.094 3.69 42.624 3.69c6.53 0 12.864 2.244 17.834 6.317 4.832 3.96 8.481 9.923 10.274 16.789 1.766 6.758 1.607 13.803-.447 19.835-4.63 13.598-16.81 23.735-27.661 32.67-11.5-9.48-24.001-20.723-28.138-34.362-1.771-5.837-1.72-12.577.146-18.98-1.866 6.403 1.88-6.46 0 0zM71.37 86.922c-7.617 2.017-17.778 3.13-28.609 3.136-10.83.006-20.991-1.098-28.61-3.107-8.425-2.221-10.674-4.75-10.675-5.894-.001-2.453 8.226-6.799 25.871-8.436 3.68 3.485 7.545 6.752 11.295 9.835 1.537 1.263 2.432 1.26 3.966-.003 3.65-3.008 7.627-6.288 11.459-9.855 17.71 1.614 25.97 5.963 25.971 8.42 0 1.142-2.246 3.674-10.668 5.904z"/><path d="M54.019 52.252c2.049-1.194.19-4.384-1.862-3.188a18.957 18.957 0 01-9.538 2.567c-10.454 0-18.959-8.497-18.959-18.94 0-10.444 8.505-18.94 18.96-18.94 10.453 0 18.958 8.496 18.958 18.94a18.89 18.89 0 01-1.045 6.218c-.778 2.238 2.712 3.453 3.491 1.211a22.564 22.564 0 001.25-7.43c0-12.48-10.163-22.632-22.654-22.632-12.492 0-22.655 10.153-22.655 22.632 0 12.48 10.163 22.632 22.654 22.632 4.01 0 7.953-1.061 11.4-3.07z"/><path d="M58.737 44.16c-1.005 0-1.85.841-1.85 1.846 0 1.003.846 1.846 1.85 1.845.976 0 1.8-.793 1.844-1.765a1.865 1.865 0 00-1.844-1.926z"/></g><defs><clipPath id="clip0_163_4400"><path fill="#fff" d="M0 0h100v100H0z"/></clipPath></defs></svg>
